Sources/FrostedUI/Resources/Icons.xcassets/clipboard32.imageset/clipboard-32.svg

<svg width="32" height="32" viewBox="0 0 32 32" fill="none" xmlns="http://www.w3.org/2000/svg" data-fui-icon="true">
  <path
    d="M17.0449 0.5C17.7844 0.5 18.4445 0.964778 18.6934 1.66113L18.9932 2.5H20.749C21.6293 2.50016 22.3588 3.15124 22.4805 4H24.25C26.0449 4 27.5 5.45507 27.5 7.25V27.75C27.5 29.5449 26.0449 31 24.25 31H7.75C5.95507 31 4.5 29.5449 4.5 27.75V7.25C4.5 5.45507 5.95507 4 7.75 4H9.51953C9.64118 3.15124 10.3707 2.50016 11.251 2.5H13.0068L13.3066 1.66113C13.5555 0.964777 14.2156 0.5 14.9551 0.5H17.0449ZM7.75 5.5C6.7835 5.5 6 6.2835 6 7.25V27.75C6 28.7165 6.7835 29.5 7.75 29.5H24.25C25.2165 29.5 26 28.7165 26 27.75V7.25C26 6.2835 25.2165 5.5 24.25 5.5H22.5V5.75C22.5 6.7165 21.7165 7.5 20.75 7.5H11.25C10.2835 7.5 9.5 6.7165 9.5 5.75V5.5H7.75ZM22.25 23.5C22.6642 23.5 23 23.8358 23 24.25C23 24.6642 22.6642 25 22.25 25H9.78125C9.36704 25 9.03125 24.6642 9.03125 24.25C9.03125 23.8358 9.36704 23.5 9.78125 23.5H22.25ZM22.25 17.5C22.6642 17.5 23 17.8358 23 18.25C23 18.6642 22.6642 19 22.25 19H9.78125C9.36704 19 9.03125 18.6642 9.03125 18.25C9.03125 17.8358 9.36704 17.5 9.78125 17.5H22.25ZM22.25 11.5C22.6642 11.5 23 11.8358 23 12.25C23 12.6642 22.6642 13 22.25 13H9.78125C9.36704 13 9.03125 12.6642 9.03125 12.25C9.03125 11.8358 9.36704 11.5 9.78125 11.5H22.25ZM14.9551 2C14.8494 2 14.7553 2.06655 14.7197 2.16602L14.2422 3.50195L14.1943 3.60938C14.0645 3.84741 13.8133 3.99985 13.5361 4H11.251C11.1118 4.00018 11 4.11331 11 4.25V5.75C11 5.88807 11.1119 6 11.25 6H20.75C20.8881 6 21 5.88807 21 5.75V4.25C21 4.11331 20.8882 4.00018 20.749 4H18.4639C18.1471 3.99982 17.8644 3.80032 17.7578 3.50195L17.2803 2.16602C17.2447 2.06655 17.1506 2 17.0449 2H14.9551Z"
    fill="currentColor"
  />
</svg>

<svg xmlns="http://www.w3.org/2000/svg" width="32" height="32" fill="none" data-fui-icon="true" viewBox="0 0 32 32"><path fill="currentColor" d="M17.045.5c.74 0 1.4.465 1.648 1.161l.3.839h1.756c.88 0 1.61.651 1.732 1.5h1.769a3.25 3.25 0 0 1 3.25 3.25v20.5A3.25 3.25 0 0 1 24.25 31H7.75a3.25 3.25 0 0 1-3.25-3.25V7.25A3.25 3.25 0 0 1 7.75 4h1.77a1.75 1.75 0 0 1 1.731-1.5h1.756l.3-.839A1.75 1.75 0 0 1 14.955.5zm-9.295 5A1.75 1.75 0 0 0 6 7.25v20.5c0 .966.784 1.75 1.75 1.75h16.5A1.75 1.75 0 0 0 26 27.75V7.25a1.75 1.75 0 0 0-1.75-1.75H22.5v.25a1.75 1.75 0 0 1-1.75 1.75h-9.5A1.75 1.75 0 0 1 9.5 5.75V5.5zm14.5 18a.75.75 0 0 1 0 1.5H9.781a.75.75 0 0 1 0-1.5zm0-6a.75.75 0 0 1 0 1.5H9.781a.75.75 0 0 1 0-1.5zm0-6a.75.75 0 0 1 0 1.5H9.781a.75.75 0 0 1 0-1.5zM14.955 2a.25.25 0 0 0-.235.166l-.478 1.336-.048.107a.75.75 0 0 1-.658.391h-2.285a.25.25 0 0 0-.251.25v1.5c0 .138.112.25.25.25h9.5a.25.25 0 0 0 .25-.25v-1.5a.25.25 0 0 0-.251-.25h-2.285a.75.75 0 0 1-.706-.498l-.478-1.336A.25.25 0 0 0 17.045 2z"/></svg>
